X:1
T: The Earl of Louden
C:John Bowie
R:Strathspey
Q: 128
K:F
M:4/4
L:1/16
|:f2|cF3 c3A F3A c3A|D3d d3c d3G G2f2|cF3 c3A F2fg a3g|f3d cdcB A2F2 F2f2|
cF3 c3A F3A c3A|D3d d3c d3G G2f2|cF3 c3A F2fg a3g|f3d cdcB A2F2 F2c2|
f3g a3g f2d2 d3f|c3d f3g a2g2 g3a|f3g a2g2 fc3 a3g|f3d cdcB A2F2 F3c|
f3g a3g f2d2 d3f|c3d f3g a2g2 g2fg|a3f g3d gdc2 a3g|f3d cdcB A2F2 F2:|
